icon-themes/breeze_svg/cmd/32/fontworkgalleryfloater.svg

<svg viewBox="0 0 32 32" xmlns="http://www.w3.org/2000/svg"><path d="m6.9570312 4v1.5 22.5h1.5 4.5429688l-.042969-1.5v-10.5h4.5 1.5v-1.5-1.5l.042969-1h-1-5v-4h12l-.042969-1v-3h-16.4999998zm1.0429688 1h16v2h-12v1 5h.957031 5.042969v2h-5-1v12h-4z" fill="#f47750"/></svg>

<svg xmlns="http://www.w3.org/2000/svg" viewBox="0 0 32 32">
 <path 
     style="fill:#f47750" 
     d="M 6.9570312 4 L 6.9570312 5.5 L 6.9570312 28 L 8.4570312 28 L 13 28 L 12.957031 26.5 L 12.957031 16 L 17.457031 16 L 18.957031 16 L 18.957031 14.5 L 18.957031 13 L 19 12 L 18 12 L 13 12 L 13 8 L 25 8 L 24.957031 7 L 24.957031 4 L 8.4570312 4 L 6.9570312 4 z M 8 5 L 24 5 L 24 7 L 12 7 L 12 8 L 12 13 L 12.957031 13 L 18 13 L 18 15 L 13 15 L 12 15 L 12 27 L 8 27 L 8 5 z "
     />
</svg>
